public/svgs/player/play_shuffle.svg

<svg viewBox="0 0 16 16" fill="none" stroke="#222" xmlns="http://www.w3.org/2000/svg">
    <path d="M11.518 14.016L13.5359 11.998L11.518 9.98009" stroke-width="1.5"/>
    <path d="M1.5 3.99805L4.38379 3.99805L9.49963 11.998L12.9996 11.998" stroke-width="1.5"/>
    <path d="M11.518 1.98009L13.5359 3.99805L11.518 6.016" stroke-width="1.5"/>
    <path d="M1.5 11.998L4.38379 11.998L9.49963 3.99805L12.9996 3.99805" stroke-width="1.5"/>
</svg>

<svg xmlns="http://www.w3.org/2000/svg" fill="none" stroke="#222" viewBox="0 0 16 16"><path stroke-width="1.5" d="m11.518 14.016 2.018-2.018-2.018-2.018"/><path stroke-width="1.5" d="M1.5 3.998h2.884l5.116 8H13M11.518 1.98l2.018 2.018-2.018 2.018"/><path stroke-width="1.5" d="M1.5 11.998h2.884l5.116-8H13"/></svg>
